svg/furkot/freepik/teleport.svg

<svg viewBox="0 0 512 512" xmlns="http://www.w3.org/2000/svg"><path d="m503.583 254.894c17.162-53.084 4.813-128.86-46.859-180.511-37.314-37.314-87.306-54.169-132.177-54.169-17.941 0-35.062 2.724-50.258 7.885-77.292-38.298-144.999-36.557-182.211.634-26.972 26.973-34.017 69.387-23.859 118.088l-16.794 16.794c-3.358-.901-6.82-1.536-10.465-1.536-22.63 0-40.96 18.329-40.96 40.96s18.33 40.96 40.96 40.96 40.96-18.33 40.96-40.96c0-3.646-.635-7.107-1.516-10.486l1.291-1.29c17.756 45.629 48.414 93.982 89.968 138.854l-58.757 58.757c-3.399-.88-6.861-1.515-10.506-1.515-22.63 0-40.96 18.329-40.96 40.96s18.33 40.96 40.96 40.96 40.96-18.33 40.96-40.96c0-3.646-.635-7.107-1.516-10.486l58.758-58.737c44.789 41.554 93.081 72.274 138.69 90.092l-1.126 1.126c-3.379-.88-6.841-1.515-10.486-1.515-22.63 0-40.96 18.329-40.96 40.96s18.33 40.96 40.96 40.96 40.96-18.33 40.96-40.96c0-3.646-.635-7.107-1.516-10.486l16.569-16.568c48.927 10.322 91.586 3.358 118.661-23.737 37.212-37.15 38.277-107.438 1.229-184.074zm-74.466-152.883c54.088 54.067 51.159 138.383 22.877 166.666-14.664 14.664-29.655 21.791-45.814 21.791-28.549 0-64.696-21.074-104.571-60.969-94.72-94.741-54.313-135.148-39.117-150.364 12.452-12.452 35.656-19.886 62.055-19.886 39.301 0 77.393 15.605 104.57 42.762z"/></svg>

<svg xmlns="http://www.w3.org/2000/svg" viewBox="0 0 512 512"><path d="M503.583 254.894C520.745 201.81 508.396 126.034 456.724 74.383 419.41 37.069 369.418 20.214 324.547 20.214 306.606 20.214 289.485 22.938 274.289 28.099 196.997-10.199 129.29-8.458 92.078 28.733 65.106 55.706 58.061 98.12 68.219 146.821L51.425 163.615C48.067 162.714 44.605 162.079 40.96 162.079 18.33 162.079 0 180.408 0 203.039S18.33 243.999 40.96 243.999 81.92 225.669 81.92 203.039C81.92 199.393 81.285 195.932 80.404 192.553L81.695 191.263C99.451 236.892 130.109 285.245 171.663 330.117L112.906 388.874C109.507 387.994 106.045 387.359 102.4 387.359 79.77 387.359 61.44 405.688 61.44 428.319S79.77 469.279 102.4 469.279 143.36 450.949 143.36 428.319C143.36 424.673 142.725 421.212 141.844 417.833L200.602 359.096C245.391 400.65 293.683 431.37 339.292 449.188L338.166 450.314C334.787 449.434 331.325 448.799 327.68 448.799 305.05 448.799 286.72 467.128 286.72 489.759S305.05 530.719 327.68 530.719 368.64 512.389 368.64 489.759C368.64 486.113 368.005 482.652 367.124 479.273L383.693 462.705C432.62 473.027 475.279 466.063 502.354 438.968 539.566 401.818 540.631 331.53 503.583 254.894ZM429.117 102.011C483.205 156.078 480.276 240.394 451.994 268.677 437.33 283.341 422.339 290.468 406.18 290.468 377.631 290.468 341.484 269.394 301.609 229.499 206.889 134.758 247.296 94.351 262.492 79.135 274.944 66.683 298.148 59.249 324.547 59.249 363.848 59.249 401.94 74.854 429.117 102.011Z"/></svg>
